tools/download-figma-icons/icons/solid/profit.svg

<svg width="24" height="24" viewBox="0 0 24 24" fill="none" xmlns="http://www.w3.org/2000/svg">
<path fill-rule="evenodd" clip-rule="evenodd" d="M21.6922 0.4635C21.6157 0.27975 21.4702 0.13425 21.2864 0.05775C21.1949 0.0195 21.0974 0 20.9999 0H17.2499C16.8352 0 16.4999 0.33525 16.4999 0.75C16.4999 1.16475 16.8352 1.5 17.2499 1.5H19.1894L14.1022 6.58725L10.0852 4.57875C9.79644 4.434 9.44844 4.4895 9.21969 4.71975L2.46969 11.4698C2.17644 11.7622 2.17644 12.237 2.46969 12.5303C2.61594 12.6765 2.80794 12.75 2.99994 12.75C3.19194 12.75 3.38394 12.6765 3.53019 12.5303L9.8977 6.16275L13.9147 8.1705C14.2027 8.3145 14.5507 8.25975 14.7802 8.03025L20.2499 2.5605V4.5C20.2499 4.91475 20.5852 5.25 20.9999 5.25C21.4147 5.25 21.7499 4.91475 21.7499 4.5V0.75C21.7499 0.6525 21.7304 0.555 21.6922 0.4635ZM5.25002 16.4998H3.00002C2.58527 16.4998 2.25002 16.8351 2.25002 17.2498V23.2498C2.25002 23.6646 2.58527 23.9998 3.00002 23.9998H5.25002C5.66477 23.9998 6.00002 23.6646 6.00002 23.2498V17.2498C6.00002 16.8351 5.66477 16.4998 5.25002 16.4998ZM8.25002 11.9998H10.5C10.9148 11.9998 11.25 12.335 11.25 12.7498V23.2498C11.25 23.6646 10.9148 23.9998 10.5 23.9998H8.25002C7.83527 23.9998 7.50002 23.6646 7.50002 23.2498V12.7498C7.50002 12.335 7.83527 11.9998 8.25002 11.9998ZM15.75 14.2498H13.5C13.0853 14.2498 12.75 14.585 12.75 14.9998V23.2498C12.75 23.6646 13.0853 23.9998 13.5 23.9998H15.75C16.1648 23.9998 16.5 23.6646 16.5 23.2498V14.9998C16.5 14.585 16.1648 14.2498 15.75 14.2498ZM18.75 9.7498H21C21.4148 9.7498 21.75 10.085 21.75 10.4998V23.2498C21.75 23.6646 21.4148 23.9998 21 23.9998H18.75C18.3353 23.9998 18 23.6646 18 23.2498V10.4998C18 10.085 18.3353 9.7498 18.75 9.7498Z" fill="black"/>
</svg>

<svg width="24" height="24" viewBox="0 0 24 24" fill="none" xmlns="http://www.w3.org/2000/svg"><path fill-rule="evenodd" clip-rule="evenodd" d="M21.692.464A.752.752 0 0 0 21 0h-3.75a.75.75 0 1 0 0 1.5h1.94l-5.088 5.087-4.017-2.008a.746.746 0 0 0-.865.14l-6.75 6.75a.75.75 0 1 0 1.06 1.061l6.368-6.367 4.017 2.008a.749.749 0 0 0 .865-.14l5.47-5.47V4.5a.75.75 0 1 0 1.5 0V.75a.744.744 0 0 0-.058-.286ZM5.25 16.5H3a.75.75 0 0 0-.75.75v6c0 .415.335.75.75.75h2.25a.75.75 0 0 0 .75-.75v-6a.75.75 0 0 0-.75-.75Zm3-4.5h2.25a.75.75 0 0 1 .75.75v10.5a.75.75 0 0 1-.75.75H8.25a.75.75 0 0 1-.75-.75v-10.5a.75.75 0 0 1 .75-.75Zm7.5 2.25H13.5a.75.75 0 0 0-.75.75v8.25c0 .415.335.75.75.75h2.25a.75.75 0 0 0 .75-.75V15a.75.75 0 0 0-.75-.75Zm3-4.5H21a.75.75 0 0 1 .75.75v12.75A.75.75 0 0 1 21 24h-2.25a.75.75 0 0 1-.75-.75V10.5a.75.75 0 0 1 .75-.75Z" fill="currentColor"/></svg>
